X: 23875
T: Lliw Lili Ymysg Y Drain
R: waltz
M: 3/4
K: Eminor
B|:BeE G>A B/A/|Bgf/e/ d>c B/A/|BeE G>A B/A/|1 Bgf e2 B:|2 Bgf e2 f||
|:g>ab f>ga|g>f e/d/ B2 A|G>AB G>AB|1 Bgf e2 f:|2 Bgf e2||

